Origami/24x24/apps/swatchbooker.svg

<svg width="24" height="24" version="1.1" viewBox="0 0 24 24" xmlns="http://www.w3.org/2000/svg">
 <rect x="2" y="15.5" width="20" height="7" rx="3.5" ry="3.5" style="opacity:.2"/>
 <path d="m12.095703 4.2373047c-1.240679-0.0335122-2.457492 0.5965105-3.1240235 1.7509763l-6.4999998 11.258789c-0.3201301 0.554482-0.4690403 1.157815-0.46875 1.75293h4.4970703v2.6515c0.8274755-0.245837 1.566502-0.09439 2.0341795-0.90443l6.5000005-11.258789c0.969499-1.679223 0.397973-3.810773-1.28125-4.7802732-0.524758-0.3029688-1.093282-0.4554704-1.657227-0.4707031z" style="opacity:.2"/>
 <path d="m16.719726 8.933594c-0.563945 0.01523-1.133445 0.167734-1.658202 0.470703l-11.257813 6.5c-1.1459456 0.661612-1.774515 1.864568-1.7509765 3.095703h4.4472656l1.445e-4 2.352969c0.274329-0.0778 0.5449855-0.186563 0.803711-0.335937l11.257668-5.550235c1.679223-0.9695 2.25075-3.102027 1.28125-4.78125-0.666531-1.154466-1.882368-1.7854655-3.123047-1.751953z" style="opacity:.2"/>
 <path d="m5.5 2c-1.939 0-3.5 1.561-3.5 3.5v13h4.5v3.353515c1.448285-0.428561 2.5-1.762599 2.5-3.353515v-13c0-1.939-1.561-3.5-3.5-3.5z" style="fill:#4f4f4f"/>
 <path d="m12.095703 3.7373047c-1.240679-0.0335121-2.457492 0.5965105-3.1240235 1.7509763l-6.4999998 11.258789c-0.3201301 0.554482-0.4690403 1.157815-0.46875 1.75293h4.4970703v3.351562c0.8274755-0.245837 1.566502-0.79445 2.0341795-1.604492l6.5000005-11.258789c0.969499-1.679223 0.397973-3.810773-1.28125-4.7802732-0.524758-0.3029687-1.093282-0.4554703-1.657227-0.4707031z" style="fill:#4d4e99"/>
 <path d="m16.719726 8.433594c-0.563945 0.01523-1.133445 0.167734-1.658202 0.470703l-11.257813 6.5c-1.1459456 0.661612-1.774515 1.864568-1.7509765 3.095703h4.4472656v3.302734c0.274329-0.0778 0.5449855-0.186562 0.803711-0.335937l11.257812-6.5c1.679223-0.9695 2.25075-3.102027 1.28125-4.78125-0.666531-1.154466-1.882368-1.7854655-3.123047-1.751953z" style="fill:#e74949"/>
 <rect x="2" y="15" width="20" height="7" rx="3.5" ry="3.5" style="fill:#ffc255"/>
 <path d="m5.5 2c-1.939 0-3.5 1.561-3.5 3.5v0.5c0-1.939 1.561-3.5 3.5-3.5s3.5 1.561 3.5 3.5v-0.5c0-1.939-1.561-3.5-3.5-3.5z" style="fill:#ffffff;opacity:.1"/>
 <path d="m12.095703 3.7373047c-1.240679-0.0335121-2.457492 0.5965105-3.1240235 1.7509763l-6.4999998 11.258789c-0.3679934 0.637383-0.5122842 1.339949-0.4599609 2.019531 0.034622-0.518439 0.181685-1.037543 0.4599609-1.519531l6.4999998-11.258789c0.9695-1.679223 3.1020275-2.2497732 4.7812505-1.2802732 1.04091 0.6009697 1.655794 1.6480982 1.742187 2.7578127 0.084679-1.2866515-0.54599-2.5671881-1.742187-3.2578127-0.524758-0.3029687-1.093282-0.4554703-1.657227-0.4707031z" style="fill:#ffffff;opacity:.1"/>
 <path d="m16.719726 8.433594c-0.563945 0.01523-1.133445 0.167734-1.658202 0.470703l-11.257813 6.5c-1.1964977 0.690798-1.8272489 1.971811-1.7421875 3.258789 0.0863708-1.109744 0.7012526-2.157805 1.7421875-2.758789l11.257813-6.5c1.679222-0.9695 3.811749-0.3979735 4.781249 1.28125 0.278806 0.482907 0.426695 1.003037 0.460938 1.522461 0.05296-0.680481-0.09242-1.384173-0.460938-2.022461-0.666531-1.154466-1.882368-1.7854655-3.123047-1.751953z" style="fill:#ffffff;opacity:.1"/>
 <path d="m5.5 15c-1.939 0-3.5 1.561-3.5 3.5 0 0.08454 0.00686 0.166994 0.012695 0.25 0.1280351-1.820783 1.6328463-3.25 3.487305-3.25h13c1.854459 0 3.35927 1.429217 3.487304 3.25 0.005837-0.083006 0.012696-0.165459 0.012696-0.25 0-1.939-1.561-3.5-3.5-3.5h-13z" style="fill:#ffffff;opacity:.1"/>
 <circle cx="5.5" cy="19" r="1.5" style="opacity:.2"/>
 <circle cx="5.5" cy="18.5" r="1.5" style="fill:#ffffff"/>
</svg>

<svg xmlns="http://www.w3.org/2000/svg" width="24" height="24" version="1.1" viewBox="0 0 24 24">
 <rect style="opacity:0.2" width="20" height="7" x="2" y="15.5" rx="3.5" ry="3.5"/>
 <path style="opacity:0.2" d="M 12.095703,4.2373047 C 10.855024,4.2037925 9.638211,4.8338152 8.9716795,5.988281 L 2.4716797,17.24707 C 2.1515496,17.801552 2.0026394,18.404885 2.0029297,19 L 6.5,19 l 0,2.6515 c 0.8274755,-0.245837 1.566502,-0.09439 2.0341795,-0.90443 L 15.03418,9.488281 C 16.003679,7.809058 15.432153,5.677508 13.75293,4.7080078 13.228172,4.405039 12.659648,4.2525374 12.095703,4.2373047 Z"/>
 <path style="opacity:0.2" d="m 16.719726,8.933594 c -0.563945,0.01523 -1.133445,0.167734 -1.658202,0.470703 l -11.2578131,6.5 C 2.6577653,16.565909 2.0291959,17.768865 2.0527344,19 L 6.5,19 l 1.445e-4,2.352969 c 0.274329,-0.0778 0.5449855,-0.186563 0.803711,-0.335937 L 18.561523,15.466797 c 1.679223,-0.9695 2.25075,-3.102027 1.28125,-4.78125 C 19.176242,9.531081 17.960405,8.9000815 16.719726,8.933594 Z"/>
 <path style="fill:#4f4f4f" d="M 5.5,2 C 3.561,2 2,3.561 2,5.5 l 0,13 4.5,0 0,3.353515 C 7.948285,21.424954 9,20.090916 9,18.5 L 9,5.5 C 9,3.561 7.439,2 5.5,2 Z"/>
 <path style="fill:#4d4e99" d="M 12.095703,3.7373047 C 10.855024,3.7037926 9.638211,4.3338152 8.9716795,5.488281 L 2.4716797,16.74707 C 2.1515496,17.301552 2.0026394,17.904885 2.0029297,18.5 L 6.5,18.5 l 0,3.351562 C 7.3274755,21.605725 8.066502,21.057112 8.5341795,20.24707 L 15.03418,8.988281 C 16.003679,7.309058 15.432153,5.177508 13.75293,4.2080078 13.228172,3.9050391 12.659648,3.7525375 12.095703,3.7373047 Z"/>
 <path style="fill:#e74949" d="m 16.719726,8.433594 c -0.563945,0.01523 -1.133445,0.167734 -1.658202,0.470703 l -11.2578131,6.5 C 2.6577653,16.065909 2.0291959,17.268865 2.0527344,18.5 L 6.5,18.5 l 0,3.302734 c 0.274329,-0.0778 0.5449855,-0.186562 0.803711,-0.335937 l 11.257812,-6.5 c 1.679223,-0.9695 2.25075,-3.102027 1.28125,-4.78125 C 19.176242,9.031081 17.960405,8.4000815 16.719726,8.433594 Z"/>
 <rect style="fill:#ffc255" width="20" height="7" x="2" y="15" rx="3.5" ry="3.5"/>
 <path style="opacity:0.1;fill:#ffffff" d="M 5.5,2 C 3.561,2 2,3.561 2,5.5 L 2,6 C 2,4.061 3.561,2.5 5.5,2.5 7.439,2.5 9,4.061 9,6 L 9,5.5 C 9,3.561 7.439,2 5.5,2 Z"/>
 <path style="opacity:0.1;fill:#ffffff" d="M 12.095703,3.7373047 C 10.855024,3.7037926 9.638211,4.3338152 8.9716795,5.488281 L 2.4716797,16.74707 c -0.3679934,0.637383 -0.5122842,1.339949 -0.4599609,2.019531 0.034622,-0.518439 0.181685,-1.037543 0.4599609,-1.519531 L 8.9716795,5.988281 C 9.9411795,4.309058 12.073707,3.7385078 13.75293,4.7080078 14.79384,5.3089775 15.408724,6.356106 15.495117,7.4658205 15.579796,6.179169 14.949127,4.8986324 13.75293,4.2080078 13.228172,3.9050391 12.659648,3.7525375 12.095703,3.7373047 Z"/>
 <path style="opacity:0.1;fill:#ffffff" d="m 16.719726,8.433594 c -0.563945,0.01523 -1.133445,0.167734 -1.658202,0.470703 l -11.2578131,6.5 C 2.6072132,16.095095 1.976462,17.376108 2.0615234,18.663086 2.1478942,17.553342 2.762776,16.505281 3.8037109,15.904297 l 11.2578131,-6.5 c 1.679222,-0.9695 3.811749,-0.3979735 4.781249,1.28125 0.278806,0.482907 0.426695,1.003037 0.460938,1.522461 0.05296,-0.680481 -0.09242,-1.384173 -0.460938,-2.022461 C 19.176242,9.031081 17.960405,8.4000815 16.719726,8.433594 Z"/>
 <path style="opacity:0.1;fill:#ffffff" d="M 5.5,15 C 3.561,15 2,16.561 2,18.5 c 0,0.08454 0.00686,0.166994 0.012695,0.25 C 2.1407301,16.929217 3.6455413,15.5 5.5,15.5 l 13,0 c 1.854459,0 3.35927,1.429217 3.487304,3.25 C 21.993141,18.666994 22,18.584541 22,18.5 22,16.561 20.439,15 18.5,15 l -13,0 z"/>
 <circle style="opacity:0.2" cx="5.5" cy="19" r="1.5"/>
 <circle style="fill:#ffffff" cx="5.5" cy="18.5" r="1.5"/>
</svg>
